;#### Modified by RFX at 19:01:41 Friday, Nov 11, 2022 ####
;Just a Commemnt
G90 ; Set Abolute movement
;G21                      Set units mm
G92 X10.00000 Y20.00000 Z30.00000 E40 ; Set position with mixed spacing 
G28 X Y Z E ; Home just X
G28 ; Home all
G92 X10.00000 Y20.00000 Z30.00000 E40.00000 ; Set position of X to 10
M117  Intro line ...     ;M117 MSG with Comment after
G90 
G1 X0.00000 Y0.00000 Z0.00000 E0 
G91 M82 
G92 X0.00000 Y0.00000 Z0.00000 E0 
G1 X20.00000 E10 Y0.00000 Z0.00000 
G1 Y20.00000 E20 X20.00000 Z0.00000 
G1 X-20.00000 E30 Y20.00000 Z0.00000 
G1 Y-20.00000 E40 X-20.00000 Z0.00000 
G90 M83 
G92 X0.00000 Y0.00000 Z0.00000 E0 
G1 X20.00000 E10 Y0.00000 Z0.00000 
G1 X20.00000 Y20.00000 E10 Z0.00000 
G1 X0.00000 Y20.00000 E10 Z0.00000 
G1 X0.00000 Y0.00000 Z50.00000 E10 
G28 
G1 X1.00000 Y2.00000 Z3.00000 E4 
G92 X10.00000 Y2.00000 Z3.00000 E4.00000 
G1 X0.00000 Y0.00000 Z0.00000 E0 
G53 X0.00000 Y0.00000 Z0.00000 E0.00000 ; Move in machine coordinates
G1 X10.00000 Y10.00000 Z10.00000 E0 
G92 
G28 
G1 X1.00000 Y2.00000 Z3.00000 E0.00000 
G20 
G1 X1.00000 Y2.00000 Z3.00000 E0.00000 
G21 
G1 X1.00000 Y2.00000 Z3.00000 E0.00000 
G20 
;Testing Math
M104 S0 ; M104 S50 in output file
K6 
K6 
;Testing Multipliers
G1 X0.00000 Y0.00000 Z0.00000 E500 F200 ;E=500 F=200
G1 X0.00000 Y0.00000 Z0.00000 E2000 F50 ;E=2000 F=50
M3 S50 ;S=50
M3 S200 ;S=200
G99 
G98 
G98 
G98 
G99 
